X: 1
T: Polska till Vik
C: Viksta Lasse
R: polska
S: Kalle Alml\"of
B:
D:
Z: 1998 by John Chambers <jc@trillian.mit.edu>
N: Learned from Kalle Alml\"of Aug 1998
M: 3/4
L: 1/8
K: G
P: A
|: B2 ~BA/B/ c>A | AG G2 B>d | g2 ~gf/g/ a>g | ed d4 :|
P: B
|| gf/g/ ae g>e | ed ~d>B G>g | gf/g/ ae g>e | ed ~d>B G>B |
| ~BA/B/ (c/d/)c/A/ ~B>G | (AB) GB d2 | ~BA/B/ (c/d/)c/A/ ~B>G | (AB) G4 ||
P: C
|: G2 B2 B>B | BB BG G2 | g2 ~gf/g/ a>g | ed d4 :|
P: B
P: D
B- \
|: d>g b2 b>a | ~gf/g/ af d>f | ~fe/f/ g/a/g/e/ c>e | ed ~d>B G>B- :|
| ~BA/B/ (c/d/)c/A/ ~B>G | (AB) GB d2 | ~BA/B/ (c/d/)c/A/ ~B>G | (AB) G4 |]
